X:1
T:Jon Jonson
M:6/8
L:1/8
K:E
 B,| EEE EGB,| EEE EGB,| EEE EDE| F3- FB, B,| FFF FGA| FFF FGA| FF-F-F GA|\
 G3- G2||
